X:96
T:Jack-O-Lantern Jig
R:jig
C:Bruce Osborne - Sept. 2002
Z:abc by bosborne@kos.net
M:6/8
L:1/8
K:Dmaj
F/G/|ABc dcB|AFE DFA|dcB AFB|AFD E2 F/G/|\
ABc dcB|AFE DFA|dcB AFA|GFE D2:|
|:F/G/|AFF BFF|AFA def|a^ga fdd|fed e2 F/G/|\
AFF BFF|AFA def|a^ga fdd|edc d2:|
